X: 391
T: Bir Misli
C: Şakir Ağa
O: Turkey
F: http://compmusic.upf.edu/node/140
N: buselik--sarki--aksak--bir_misli--sakir_aga
N: makam= buselik
N: form= sarki
N: usul= aksak = 9/8
M: 9/8
L: 1/16
K: C    
Q: 1/4=120
%%MIDI tuningsystem comma53
G4 c2e2 d2cB cBcd cB | A4Bd cBBA G2AB cdcB  | 
w:   |   | 
c2z2 e2dc cBBA BAG4 | z2 ABcd cBA4e4dc  | 
w:   |   | 
d2cd cBA2 cBA^G A4 z2 | e4^g^1/4f fefe ^ded2 e4  | 
w:   |   | 
c2Bc d2ed cBAG c4 Bd | c2 z2A2 B2c2 Bdc4z2  | 
w:   |   | 
G4 G2A2 G4 A4 B2 | c3de2 dcg2 g2g^f _7/8edc2  | \
w:   |   | 
f4 fagf feed edcB c2 | 
w:   | 
Bc Bcdf edcd cBA2 e2dc  | dc2d cBA2 cBA^G A4 z2 | 
w:   |   | 
ef gag2 f2e2 dfed cBc2  | d_7/8ede d^fed dccB c4 d2 | 
w:   |   | 
ef edc2 d2e2 dfed cBA2  | BcBA BdcB BAA^G A4 z2 | 
w:   |   | 
ef gag2 f2e2 dfed cBc2  | d_7/8ede d^fed dccB c4 d2 | 
w:   |   | 
ef edc2 d2e2 dfed cBA2  | BcBA BdcB BAA^G A4 z2 | 
w:   |   | 
|


